!!!COM: Francesco Soriano
!!!OPR: Canoni et oblighi di cento et dieci sorte sopra l'Ave Maris Stella"
!!!PPR: Giovanni Battista Robletti
!!!PDT: 1610
!!!OTL: Alla quinta [alta].  Al Sospiro.
**kern	**kern	**kern
*CF	*guida	*conseq
*k[]	*M4/2	*M4/2
*M4/2	*k[]	*k[]
*MM114	*MM114	*MM114
=1	=1	=1
0D	2r	2r
.	2.d	2r
.	.	2.a
.	4e	.
.	2f	.
.	.	4b
=2	=2	=2
(0A	2.F	2cc
.	.	2.c
.	4G	.
.	4A	.
.	4B	4d
.	2c	4e
.	.	4f#
=3	=3	=3
0B)	4G	2g
.	4E	.
.	1G	4d
.	.	4B
.	.	1d
.	2G	.
=4	=4	=4
0G	2r	2d
.	4C	2r
.	4D	.
.	4E	4G
.	4F	4A
.	2G	4B
.	.	4c
=5	=5	=5
(0A	4D	2d
.	4E	.
.	4F	4A
.	4G	4B
.	4A	4c
.	4B	4d
.	2c	4e
.	.	4f#
=6	=6	=6
0B	2G	2g
.	2.g	2d
.	.	2.dd
.	8f	.
.	8e	.
.	2d	.
.	.	8cc
.	.	8b
=7	=7	=7
0c	4c	2a
.	4F	.
.	2c	4g
.	.	4c
.	4C	2g
.	4D	.
.	4E	4G
.	4C	4A
=8	=8	=8
0d	4.G	4B
.	.	4G
.	8A	.
.	4B	4.d
.	4G	.
.	.	8e
.	4.d	4f#
.	.	4d
.	8e	.
.	4.f#	4.a
.	8g	8b
=9	=9	=9
0c	2a	4.cc
.	.	8dd
.	4A	2ee
.	4B	.
.	4c	4e
.	4d	4f#
.	4e	4g
.	4f#	4a
=10	=10	=10
0B	2g	4b
.	.	4cc
.	2G	2dd
.	2r	2d
.	2d	2r
=11	=11	=11
0A	2.f	2a
.	.	2.cc
.	4e	.
.	4f	.
.	4d	4b
.	4e	4cc
.	4f	4a
=12	=12	=12
0G	2.g	4b
.	.	4cc
.	.	2.dd
.	4f	.
.	2e	.
.	.	4cc
.	2d	2b
=13	=13	=13
0A	2c	2a
.	2B	2g
.	4A	2f#
.	4D	.
.	2A	4e
.	.	4A
=14	=14	=14
0A	2r	2e
.	2D	2r
.	2.F	2A
.	.	[2c
.	4G	.
=15	=15	=15
0A	2A	4c]
.	.	4d
.	2.a	2e
.	.	2.ee
.	8g	.
.	8f	.
.	4e	.
.	4f	8dd
.	.	8cc
=16	=16	=16
0G	2g	4b
.	.	4cc
.	4r	2dd
.	2g	.
.	.	4r
.	4G	2dd
.	2B-	.
.	.	4d
=17	=17	=17
0A	2.F	2f
.	.	2.c
.	4f	.
.	4f	.
.	4f	4cc
.	2e	4cc
.	.	4cc
=18	=18	=18
0D	2d	2b
.	4r	2a
.	2d	.
.	.	4r
.	4D	2a
.	2F	.
.	.	4A
=19	=19	=19
0E	2C	2c
.	2.c	2G
.	.	2.g
.	8B	.
.	8A	.
.	[2G	.
.	.	8f#
.	.	8e
=20	=20	=20
0G	2G]	1d
.	2.g	.
.	.	2.dd
.	8f	.
.	8e	.
.	4d	.
.	4e	8cc
.	.	8b
=21	=21	=21
0F	1f	4a
.	.	4b
.	.	1cc
.	4F	.
.	4G	.
.	4A	4c
.	4B	4d
=22	=22	=22
0E	4c	4e
.	4d	4f#
.	2.e	4g
.	.	4a
.	.	2.b
.	4f#	.
.	4g	.
.	4G	4cc
=23	=23	=23
0D	2.B-	4dd
.	.	4d
.	.	2.f
.	4B-	.
.	2B-	.
.	.	4f
.	2A	2f
=24	=24	=24
0E	2c	2e
.	4C	2g
.	4D	.
.	4E	4G
.	4F	4A
.	4G	4B
.	4A	4c
=25	=25	=25
0D	4B	4d
.	4c	4e
.	1d	4f#
.	.	4g
.	.	1a
.	2d	.
=26	=26	=26
0F	2.D	2a
.	.	2.A
.	4E	.
.	4F	.
.	4G	4B
.	4A	4c
.	4B	4d
=27	=27	=27
0E	4c	4e
.	4d	4f#
.	1e	4g
.	.	4a
.	.	1b
.	2e	.
=28	=28	=28
0G	4E	2b
.	8e	.
.	8f	.
.	1g	4B
.	.	8b
.	.	8cc
.	.	1dd
.	2f	.
=29	=29	=29
0A	2e	2cc
.	2d	2b
.	2c	2a
.	2B	2g
=30	=30	=30
0A	4A	2f#
.	8f#	.
.	8g	.
.	1a	4e
.	.	8cc
.	.	8dd
.	.	1ee
.	2g	.
=31	=31	=31
0D	2f	2dd
.	2e	2cc
.	2d	2b
.	2c	2a
=32	=32	=32
0E	2B	2g
.	1A	2f#
.	.	1e
.	4G	.
.	4g	.
=33	=33	=33
0F	4f	4d
.	4d	4dd
.	2.f	4cc
.	.	4a
.	.	2.cc
.	4g	.
.	2a	.
.	.	4dd
=34	=34	=34
0E	2g	2ee
.	2f	2dd
.	4.e	2cc
.	8f	.
.	2g	4.b
.	.	8cc
=35	=35	=35
0D	2f	2dd
.	2e	2cc
.	4.d	2b
.	8e	.
.	2f	4.a
.	.	8b
=36	=36	=36
0C	2e	2cc
.	2d	2b
.	1c	2a
.	.	[2g
=37	=37	=37
0E	2r	2g]
.	1C	2r
.	.	1G
.	[2E	.
=38	=38	=38
0G	2E]	1B
.	2E	.
.	2G	2B
.	2r	2d
=39	=39	=39
0E	2.C	2r
.	.	2.G
.	4D	.
.	4E	.
.	4F	4A
.	2G	4B
.	.	4c
=40	=40	=40
0F	2.D	2d
.	.	2.A
.	4E	.
.	4F	.
.	4G	4B
.	4A	4c
.	4B	4d
=41	=41	=41
0E	2.c	4e
.	.	4f#
.	.	2.g
.	4B	.
.	4c	.
.	4A	4f#
.	4B	4g
.	4c#	4e
=42	=42	=42
0D	0d	4f#
.	.	4g#
.	.	1.a
==	==	==
*-	*-	*-
!!!CDT: 1548/|1549//-1621//
!!!OCY: Italia
!!!ODT: 1610
!!!AFR: cantus firmus canon
!!!AST: polyphony
!!!AMT: simple quadruple
!!!AIN: vox
!!!YEP: David Huron and Denis Collins
!!!YEN: Canada
!!!EEV: 1.0
!!!RDT: 1995 April 29
!!!YED: 1995 August 31
